X: 41931
T: Waking O' The Fauld, The
R: strathspey
M: 4/4
K: Adorian
A>G|:E<A A>B A2 g>e|d>B A>G E2 D>E|G>A B>A G<E D>E|
G>A B>A G>E D>G|E<A A>B A2 G>A|B>A B>d e2 g>a|
b>a g>e (3def g>B|1 A>G E<G A2 A>G:|2 A>G E<G A2 G>B||
|:A<a a>b a2 g>a|b2 a>g e2 d>e|g>a g>b G>A B>G|
g/f/g/a/ g<b G>A B>G|A<a a>b a2 g>f|e>d e<g a2 g>a|
(3bag (3agf (3def g>B|A>G E<G A2 G>A:|

